X:0201
T:My Love She's but a Lassie yet.
M:2/4
L:1/8
Q:1/4=104
I: :: ::
Z:Jack Campin * www.campin.me.uk * 2009
K:D
 B/c/ |d`DFD|dDD      (B/c/)| dDFD          |eEE
(B/c/ |d)DFD|dg``f>e        |(d/c/``B/A/) Bc|dDD:|
(f/g/)|a`fge|fd (d/e/)(f/g/)| afgf          |eEE
(f/g/)|a`fge|fd``ec         |(d/c/)(B/A/) Bc|dDD:|

